X: 1
T: Jenny Lind
M: 2/4
L: 1/8
R: polka
K: Dmaj
A/G/|:FA GB|Af f/e/f|Ge e/d/e/A/|Fd d/c/d/A/|
FA GB|Af f/e/f|Ge e/d/c/d/|1 ed/c/ dA/G/:|2 ed d (3A/B/c/||
K:G
|:dg B/c/d/B/|GA B2|c/B/A/B/ cc/d/|ed dB/c/|
dg B/c/d/B/|GA B2|c/B/A/B/ cF|1AG GB/c/:|2AG G2||
